icon-themes/breeze_svg/cmd/32/sortdescending.svg

<svg viewBox="0 0 32 32" xmlns="http://www.w3.org/2000/svg"><path d="m8.1757812 4 .048828.9003906h4.2578128l-4.482422 6.2910154v.808594h6l-.0332-.9375h-4.4414094l4.4003904-6.2011719v-.8613281zm12.8242188 10v12.085938l-3.792969-3.792969-.707031.707031 4 4 1 1 1-1 4-4-.707031-.707031-3.792969 3.792969v-12.085938z" fill="#4d4d4d"/><path d="m11.091797 14c-1.032887 0-1.9647119.191191-2.7929689.574219l.3300781.886719c.3556633-.169694.7597842-.300456 1.2128907-.392579.4531061-.09697.8768461-.144531 1.2714841-.144531.584653 0 1.011333.137702 1.279297.414063.272842.276367.408203.695387.408203 1.257812v.757813h-1.234375c-1.242389 0-2.1487128.195166-2.7187498.58789-.565165.387883-.8476562 1.000047-.8476562 1.833985 0 .698181.2138308 1.242034.6425781 1.634765.4336125.392725 1.0074168.589844 1.7187499.589844 1.062118 0 1.923329-.405147 2.585938-1.214844l.132812 1.0625h.919922v-5.076172c0-.979397-.253062-1.68567-.759766-2.117187-.501824-.436358-1.217865-.654297-2.148437-.654297zm.78125 4.152344h.927734v1.695312c-.57978.848489-1.368403 1.271485-2.367187 1.271485-.365407 0-.6704581-.11493-.9140628-.347657-.2436046-.232727-.3652343-.563565-.3652343-.990234 0-.237575.0225665-.435706.0664062-.595703.0438464-.164852.1233039-.315416.2402344-.451172.1169305-.140605.2777919-.248594.4824219-.326172.2046296-.082433.4665146-.145826.7832026-.189453.316682-.043627.69825-.066406 1.146485-.066406z" fill="#1d99f3"/></svg>

<svg xmlns="http://www.w3.org/2000/svg" viewBox="0 0 32 32">
 <path 
     style="fill:#4d4d4d" 
     d="M 8.1757812 4 L 8.2246094 4.9003906 L 12.482422 4.9003906 L 8 11.191406 L 8 12 L 14 12 L 13.966797 11.0625 L 9.5253906 11.0625 L 13.925781 4.8613281 L 13.925781 4 L 8.1757812 4 z M 20.5 14 L 20.5 26.085938 L 16.707031 22.292969 L 16 23 L 20 27 L 21 28 L 22 27 L 26 23 L 25.292969 22.292969 L 21.5 26.085938 L 21.5 14 L 20.5 14 z "
     />
 <path 
     style="fill:#1d99f3" 
     d="M 11.091797 14 C 10.05891 14 9.1270851 14.191191 8.2988281 14.574219 L 8.6289062 15.460938 C 8.9845695 15.291244 9.3886904 15.160482 9.8417969 15.068359 C 10.294903 14.971389 10.718643 14.923828 11.113281 14.923828 C 11.697934 14.923828 12.124614 15.06153 12.392578 15.337891 C 12.66542 15.614258 12.800781 16.033278 12.800781 16.595703 L 12.800781 17.353516 L 11.566406 17.353516 C 10.324017 17.353516 9.4176932 17.548682 8.8476562 17.941406 C 8.2824912 18.329289 8 18.941453 8 19.775391 C 8 20.473572 8.2138308 21.017425 8.6425781 21.410156 C 9.0761906 21.802881 9.6499949 22 10.361328 22 C 11.423446 22 12.284657 21.594853 12.947266 20.785156 L 13.080078 21.847656 L 14 21.847656 L 14 16.771484 C 14 15.792087 13.746938 15.085814 13.240234 14.654297 C 12.73841 14.217939 12.022369 14 11.091797 14 z M 11.873047 18.152344 L 12.800781 18.152344 L 12.800781 19.847656 C 12.221001 20.696145 11.432378 21.119141 10.433594 21.119141 C 10.068187 21.119141 9.7631359 21.004211 9.5195312 20.771484 C 9.2759266 20.538757 9.1542969 20.207919 9.1542969 19.78125 C 9.1542969 19.543675 9.1768634 19.345544 9.2207031 19.185547 C 9.2645495 19.020695 9.344007 18.870131 9.4609375 18.734375 C 9.577868 18.59377 9.7387294 18.485781 9.9433594 18.408203 C 10.147989 18.32577 10.409874 18.262377 10.726562 18.21875 C 11.043244 18.175123 11.424812 18.152344 11.873047 18.152344 z "
     />
</svg>
